src/assets/cuff.svg

<svg width="115" height="95" viewBox="0 0 115 95" fill="none" xmlns="http://www.w3.org/2000/svg">
<path d="M49.5 39.1755L47 37.1755" stroke="black" stroke-linecap="round"/>
<path d="M44.5 35.1755L41.5 32.6755" stroke="black" stroke-linecap="round"/>
<path d="M40 31.6755L37.5 28.6755" stroke="black" stroke-linecap="round"/>
<path d="M74 54.1755L79 63.1755" stroke="black" stroke-linecap="round"/>
<path d="M70 58.6755H81" stroke="black" stroke-linecap="round"/>
<path d="M82.5 56.6755C81.3 56.6755 81 58.0088 81 58.6755C81.5 59.0088 82.7 59.4755 83.5 58.6755C84.5 57.6755 84 56.6755 82.5 56.6755Z" stroke="black" stroke-linecap="round"/>
<path d="M79.8762 65.746C80.5158 64.7306 79.5475 63.7662 78.9834 63.4109C78.4348 63.6563 77.4004 64.423 77.651 65.5262C77.9642 66.9053 79.0768 67.0152 79.8762 65.746Z" stroke="black" stroke-linecap="round"/>
<path d="M60 0.675468C58.4 1.87547 51.3333 11.1755 48 15.6755C52.5 18.6755 63.7 25.8755 72.5 30.6755C83.5 36.6755 97.5 52.6755 101 50.1755C104.5 47.6755 115.5 34.1755 114.5 33.6755C113.5 33.1755 89.5 14.6755 79 11.1755C68.5 7.67547 62 -0.824532 60 0.675468Z" stroke="black" stroke-linecap="round"/>
<path d="M0.5 74.6755C7.66667 67.1755 22.7 51.6755 25.5 49.6755C29 47.1755 34 43.1755 35.5 41.1755C37 39.1755 47 31.1755 47.5 30.1755C48 29.1755 50.5 30.1755 52.5 31.1755C54.5 32.1755 55 33.6755 56.5 34.1755C58 34.6755 58.5 34.1755 60 36.1755C61.5 38.1755 63 36.6755 63.5 37.6755C64 38.6755 66 39.6755 66.5 40.1755C67 40.6755 69 43.6755 69.5 44.1755C69.9 44.5755 70.3333 45.6755 70.5 46.1755C69.6667 45.3421 67.7 43.5755 66.5 43.1755C65 42.6755 65 42.6755 63.5 41.1755C62 39.6755 62 40.1755 61 39.6755C60 39.1755 48 51.1755 45.5 52.1755" stroke="black" stroke-linecap="round"/>
<path d="M48 50.1755C47.6666 50.1755 47.5 49.4755 49.5 46.6755C52 43.1755 56.5 37.6755 56.5 36.6755C56.5 35.8755 55.1667 35.6755 54.5 35.6755C54.1667 35.3421 53.5 34.5755 53.5 34.1755C53.5 33.7755 51.8333 33.3421 51 33.1755C50.5 32.8421 49.5 32.0755 49.5 31.6755C49.5 31.2755 48.5 30.1755 48 29.6755" stroke="black" stroke-linecap="round"/>
<path d="M54.4225 35.943C54.5702 35.7097 54.5009 35.4008 54.2676 35.2531C54.0343 35.1053 53.7254 35.1747 53.5776 35.408L54.0001 35.6755L54.4225 35.943ZM45.0001 52.1755L44.5257 52.3336L45.0001 52.1755ZM51.5 49.6755L51.7906 50.0823C51.804 50.0728 51.8169 50.0626 51.8293 50.0518L51.5 49.6755ZM62.3184 41.061C62.5313 40.8851 62.5614 40.5699 62.3855 40.357C62.2096 40.1441 61.8945 40.1141 61.6816 40.29L62 40.6755L62.3184 41.061ZM54.0001 35.6755L53.5776 35.408C51.9918 37.9119 49.6373 41.7441 47.7279 45.1034C46.7739 46.7818 45.9262 48.3503 45.3408 49.5792C45.0488 50.1922 44.8163 50.7326 44.6687 51.1659C44.5952 51.3818 44.5383 51.584 44.5076 51.7628C44.4798 51.9248 44.4602 52.1372 44.5257 52.3336L45.0001 52.1755L45.4744 52.0174C45.4899 52.0638 45.4721 52.055 45.4932 51.9319C45.5115 51.8255 45.5505 51.6785 45.6154 51.4882C45.7445 51.1089 45.958 50.6088 46.2436 50.0093C46.8135 48.8131 47.6471 47.2692 48.5972 45.5976C50.4961 42.2568 52.8416 38.439 54.4225 35.943L54.0001 35.6755ZM45.0001 52.1755L44.5257 52.3336C44.6123 52.5935 44.7547 52.8232 44.9685 52.9929C45.1826 53.1628 45.4336 53.245 45.6911 53.2673C46.1816 53.31 46.7474 53.1405 47.3281 52.8824C48.5066 52.3586 50.0463 51.3283 51.7906 50.0823L51.5 49.6755L51.2094 49.2686C49.4537 50.5226 47.9934 51.4923 46.922 51.9686C46.3777 52.2105 46.0059 52.2909 45.7777 52.2711C45.6758 52.2622 45.6221 52.235 45.5902 52.2096C45.5579 52.184 45.5128 52.1325 45.4744 52.0174L45.0001 52.1755ZM51.5 49.6755C51.8293 50.0518 51.8293 50.0517 51.8293 50.0517C51.8294 50.0517 51.8294 50.0516 51.8295 50.0515C51.8297 50.0513 51.83 50.0511 51.8304 50.0507C51.8312 50.05 51.8324 50.049 51.8341 50.0476C51.8373 50.0448 51.842 50.0406 51.8484 50.035C51.8611 50.0239 51.88 50.0074 51.9049 49.9857C51.9546 49.9422 52.028 49.8781 52.1228 49.7953C52.3124 49.6297 52.5876 49.3896 52.9299 49.0916C53.6144 48.4956 54.5671 47.6679 55.6394 46.7413C57.7851 44.8873 60.4064 42.6405 62.3184 41.061L62 40.6755L61.6816 40.29C59.7603 41.8772 57.1316 44.1303 54.9856 45.9846C53.9121 46.9122 52.9585 47.7408 52.2732 48.3375C51.9306 48.6358 51.655 48.8762 51.4651 49.042C51.3701 49.1249 51.2966 49.1892 51.2467 49.2327C51.2218 49.2545 51.2028 49.2711 51.1901 49.2823C51.1837 49.2879 51.1789 49.2921 51.1756 49.2949C51.174 49.2963 51.1728 49.2974 51.172 49.2981C51.1716 49.2985 51.1713 49.2987 51.1711 49.2989C51.171 49.299 51.1709 49.2991 51.1708 49.2991C51.1708 49.2992 51.1707 49.2992 51.5 49.6755Z" fill="black"/>
<path d="M70.5 46.1755C67.6667 49.0088 59.3 56.6755 48.5 64.6755C35 74.6755 24 89.6755 23.5 90.6755C23.1 91.4755 21.3333 93.0088 20.5 93.6755" stroke="black" stroke-linecap="round"/>
<path d="M71 56.1755L67.5 53.1755" stroke="black" stroke-linecap="round"/>
<path d="M66 52.1755L62.5 49.6755" stroke="black" stroke-linecap="round"/>
<path d="M61 47.6755L57.5 45.6755" stroke="black" stroke-linecap="round"/>
<path d="M55.5 43.6755L52 41.1755" stroke="black" stroke-linecap="round"/>
<path d="M101.389 39.2125C101.15 39.2937 100.977 39.444 100.73 39.5639C100.5 39.6658 100.19 39.6813 99.9292 39.557C99.3653 39.2441 99.4412 39.0509 98.9925 38.6814C98.9897 38.6788 98.9869 38.6763 98.984 38.6738C98.5875 38.323 98.2473 37.8963 98.022 37.7895C97.7957 37.6834 97.8997 37.5175 97.6038 37.3325C97.4679 37.2479 97.3626 37.1706 97.2694 37.0887C97.2628 37.0841 97.2459 37.0671 97.2401 37.0615C97.144 36.9463 97.0679 36.826 96.9855 36.6758C96.8218 36.4033 96.3167 35.6092 96.0975 35.3289C95.9983 35.2137 95.9321 35.0661 95.892 34.9174C95.8458 34.6996 95.851 34.5191 95.8205 34.3859C95.8056 34.3152 95.7981 34.257 95.7956 34.2112C95.7946 34.1919 95.8031 34.1791 95.8146 34.1747C95.8146 34.1747 95.8146 34.1747 95.8146 34.1747C95.829 34.1691 95.8481 34.1765 95.8583 34.1977C95.9087 34.3028 95.9926 34.4586 96.1049 34.6408C96.1452 34.705 96.1736 34.7557 96.1967 34.8009C96.3044 34.9792 96.285 35.107 96.5294 35.435C96.8416 35.8352 97.1009 36.0077 97.4314 36.5C97.4926 36.5893 97.5534 36.6577 97.6154 36.716L97.5869 36.6895C97.9089 36.9121 98.1936 36.9159 98.6476 37.4806C98.9825 37.9041 99.2043 38.0152 99.4824 38.1751C99.6482 38.2651 99.8314 38.372 100.056 38.5082C100.258 38.6292 100.429 38.6953 100.554 38.6859C100.82 38.656 101.105 38.5501 101.321 38.4208C101.485 38.3219 101.618 38.2267 101.708 38.1422C101.95 37.9183 102.203 37.5877 102.207 37.2976C102.213 37.1125 102.217 36.932 102.201 36.7828C102.189 36.6609 102.147 36.5715 102.105 36.5383C101.994 36.4384 101.81 36.3518 101.611 36.2873C101.247 36.1673 100.863 36.0689 100.5 35.946C99.7494 35.6958 98.6385 35.375 98.1458 35.1708C98.0471 35.1318 97.9635 35.0979 97.8885 35.0679C97.5945 34.9516 97.437 34.9072 97.0394 34.8536C96.7535 34.8184 96.3701 34.7227 96.0462 34.6417C95.8905 34.6216 95.8911 34.5526 96.0864 34.5218C96.3502 34.4924 96.551 34.5548 96.6912 34.5071C96.9729 34.4166 97.0985 34.387 97.4055 34.5377C97.6709 34.6705 97.8525 34.5883 98.0179 34.6136C98.0413 34.6171 98.0641 34.6229 98.0865 34.632C98.2609 34.6988 98.2265 34.8149 99.1763 34.9523C100.128 35.0802 100.661 35.1723 101.029 35.2515C101.231 35.2935 101.544 35.4034 101.879 35.5428C102.123 35.6446 102.383 35.7737 102.617 35.978C102.681 36.035 102.736 36.0988 102.781 36.163C103.016 36.5 103.024 36.9462 103.017 37.3182C102.984 38.0821 102.45 38.5255 102.254 38.7562C102.042 38.9813 101.92 39.0337 101.791 39.079C101.684 39.1175 101.572 39.1478 101.389 39.2125Z" fill="black"/>
<path d="M57.5 12.1755C56.7 10.5755 59.8333 9.84214 61.5 9.67548C63.5 10.1755 63.5 13.1755 61.5 14.1755C59.5 15.1755 58.5 14.1755 57.5 12.1755Z" stroke="black" stroke-linecap="round"/>
<path d="M60.2564 12.6186C60.2144 12.4876 60.2238 13.0759 60.1825 12.9955C60.1403 12.9153 60.1081 12.605 60.0699 12.6789C60.0342 12.7527 59.9677 12.5459 59.9653 12.6754C59.9652 12.6838 59.965 12.69 59.9645 12.6943L60.2339 12.5972C60.3264 12.5742 60.3801 12.4414 60.3837 12.2681C60.3991 12.0868 60.2859 11.88 60.25 11.7867C60.1829 11.5848 60.1449 11.6579 60.0897 11.7635C60.0304 11.8777 60.0835 12.0056 60.1346 11.8562C60.1805 11.7075 60.1656 11.9762 60.1822 12.0419C60.1862 12.0623 60.1886 12.0898 60.1901 12.1183C60.1907 12.1303 60.1893 12.1553 60.1871 12.18C60.1871 12.18 60.1871 12.18 60.1871 12.18C60.1844 12.2107 60.1804 12.2407 60.1776 12.2443C60.1641 12.2621 60.1428 12.31 60.1056 12.4178C60.0313 12.6175 60.0622 12.3904 59.9791 12.4824C59.8935 12.5718 59.7746 12.7668 59.695 12.5789C59.6619 12.4936 59.5892 12.5457 59.4358 12.5033C59.3653 12.4732 59.2331 12.436 59.1566 12.148C59.1215 12.0067 59.1544 11.7936 59.2404 11.6588C59.3233 11.5223 59.4191 11.4556 59.4944 11.4208C59.5582 11.441 59.7335 11.2717 59.783 11.3167C59.796 11.3299 59.8119 11.3563 59.831 11.4002C59.9612 11.7152 59.9058 11.1128 59.9993 11.0243C60.0922 10.9362 60.2259 11.2639 60.2765 11.2342C60.3287 11.2044 60.3991 11.1316 60.4754 11.2101C60.5505 11.2884 60.6412 11.0862 60.7204 11.2287C60.7263 11.2399 60.7331 11.2514 60.7391 11.263C61.609 11.263 61.609 12.713 60.7391 12.713C60.6112 12.5765 60.5208 12.4024 60.4814 12.2849C60.4404 12.1571 60.4368 12.129 60.3668 12.19C60.327 12.2251 60.2837 12.1733 60.2956 12.0134C60.3021 11.9332 60.3435 11.8319 60.3707 11.7858C60.4101 11.718 60.412 11.7711 60.4536 11.6408C60.5347 11.3799 60.5537 11.2771 60.5427 11.4366C60.5354 11.5966 60.6057 11.2427 60.6083 11.285C60.6116 11.3272 60.5873 11.5397 60.6677 11.383C60.7124 11.2888 60.734 11.2346 60.7391 11.1984C61.6866 11.1984 61.6866 12.7776 60.7391 12.7776C60.7184 12.802 60.7032 12.8183 60.6897 12.8342C60.6574 12.8735 60.5885 12.6894 60.5369 12.7568C60.4859 12.8241 60.3798 12.766 60.3432 12.8768C60.3073 12.9875 60.2972 12.7497 60.2564 12.6186Z" fill="black"/>
<path d="M100 46.1755L101 44.6755" stroke="black" stroke-linecap="round"/>
<path d="M102 43.6755L102.5 42.6755" stroke="black" stroke-linecap="round"/>
<path d="M104 41.6755L105 40.1755" stroke="black" stroke-linecap="round"/>
<path d="M106 39.6755L107 38.1755" stroke="black" stroke-linecap="round"/>
<path d="M108 37.1755L109 36.1755" stroke="black" stroke-linecap="round"/>
<path d="M111 35.1755L109 34.1755" stroke="black" stroke-linecap="round"/>
<path d="M107.5 33.1755L105.5 31.6755" stroke="black" stroke-linecap="round"/>
<path d="M104.5 30.6755L102.5 29.6755" stroke="black" stroke-linecap="round"/>
<path d="M101.5 28.6755L100 27.6755" stroke="black" stroke-linecap="round"/>
<path d="M99 26.6755L97 25.6755" stroke="black" stroke-linecap="round"/>
<path d="M96 24.6755L94 23.1755" stroke="black" stroke-linecap="round"/>
<path d="M92.5 22.6755L91 21.6755" stroke="black" stroke-linecap="round"/>
<path d="M89.5 21.1755L88 20.1755" stroke="black" stroke-linecap="round"/>
<path d="M87 19.1755L85.5 18.1755" stroke="black" stroke-linecap="round"/>
<path d="M84 17.6755L82.5 17.1755" stroke="black" stroke-linecap="round"/>
<path d="M81.5 16.6755L80.5 15.6755" stroke="black" stroke-linecap="round"/>
<path d="M79 15.1755L77.5 14.1755" stroke="black" stroke-linecap="round"/>
<path d="M76.5 13.6755L75.5 13.1755" stroke="black" stroke-linecap="round"/>
<path d="M74 12.1755L72.5 11.1755" stroke="black" stroke-linecap="round"/>
<path d="M71 10.6755L69.5 9.67548" stroke="black" stroke-linecap="round"/>
<path d="M68 8.67548L67 8.17548" stroke="black" stroke-linecap="round"/>
<path d="M66 7.67548L64 6.17548" stroke="black" stroke-linecap="round"/>
<path d="M63 5.67548L61.5 5.17548" stroke="black" stroke-linecap="round"/>
<path d="M60.5 5.67548L59.5 6.67548" stroke="black" stroke-linecap="round"/>
<path d="M58.5 7.67548L57.5 9.17548" stroke="black" stroke-linecap="round"/>
<path d="M56.5 10.1755L55.5 11.1755" stroke="black" stroke-linecap="round"/>
<path d="M55 12.1755L53.5 13.1755" stroke="black" stroke-linecap="round"/>
<path d="M52.5 14.1755L51.5 15.1755" stroke="black" stroke-linecap="round"/>
<path d="M51 16.1755C52 16.5088 54.1 16.9755 54.5 16.1755" stroke="black" stroke-linecap="round"/>
<path d="M56.5 15.1755C56.5 15.3421 56.7 15.9755 57.5 17.1755" stroke="black" stroke-linecap="round"/>
<path d="M60 19.1755C61 19.8421 63.4 21.0755 65 20.6755" stroke="black" stroke-linecap="round"/>
<path d="M67 21.6755C66.6667 23.0088 66.8 25.6755 70 25.6755" stroke="black" stroke-linecap="round"/>
<path d="M72.5 27.1755C73.5 27.6755 78 27.1755 78.5 29.1755" stroke="black" stroke-linecap="round"/>
<path d="M80.5 30.6755C80.8333 31.6755 81.8 33.8755 83 34.6755" stroke="black" stroke-linecap="round"/>
<path d="M85.5 36.6755C86.8333 37.3421 89.9 38.4755 91.5 37.6755" stroke="black" stroke-linecap="round"/>
<path d="M94 39.6755C93.6667 41.0088 93.6 43.4755 96 42.6755" stroke="black" stroke-linecap="round"/>
<path d="M98.5 45.1755C98.6667 46.6755 99.5 49.0755 101.5 46.6755C103.5 44.2755 103.333 45.6755 103 46.6755" stroke="black" stroke-linecap="round"/>
</svg>

<svg xmlns="http://www.w3.org/2000/svg" width="115" height="95" fill="none"><path stroke="#000" stroke-linecap="round" d="m49.5 39.176-2.5-2M44.5 35.176l-3-2.5M40 31.676l-2.5-3M74 54.176l5 9M70 58.676h11M82.5 56.676c-1.2 0-1.5 1.333-1.5 2 .5.333 1.7.8 2.5 0 1-1 .5-2-1-2ZM79.876 65.746c.64-1.015-.329-1.98-.893-2.335-.548.245-1.583 1.012-1.332 2.115.313 1.38 1.426 1.49 2.225.22ZM60 .675c-1.6 1.2-8.667 10.5-12 15 4.5 3 15.7 10.2 24.5 15 11 6 25 22 28.5 19.5s14.5-16 13.5-16.5-25-19-35.5-22.5-17-12-19-10.5ZM.5 74.676c7.167-7.5 22.2-23 25-25 3.5-2.5 8.5-6.5 10-8.5s11.5-10 12-11 3 0 5 1 2.5 2.5 4 3 2 0 3.5 2 3 .5 3.5 1.5 2.5 2 3 2.5 2.5 3.5 3 4c.4.4.833 1.5 1 2-.833-.834-2.8-2.6-4-3-1.5-.5-1.5-.5-3-2s-1.5-1-2.5-1.5-13 11.5-15.5 12.5"/><path stroke="#000" stroke-linecap="round" d="M48 50.176c-.333 0-.5-.7 1.5-3.5 2.5-3.5 7-9 7-10 0-.8-1.333-1-2-1-.333-.334-1-1.1-1-1.5s-1.667-.834-2.5-1c-.5-.334-1.5-1.1-1.5-1.5s-1-1.5-1.5-2"/><path fill="#000" d="M54.423 35.943a.5.5 0 1 0-.845-.535l.422.267zM45 52.176l-.474.158zm6.5-2.5.29.406.04-.03zm10.818-8.615a.5.5 0 0 0-.636-.771l.318.386zM54 35.676l-.422-.268c-1.586 2.504-3.94 6.336-5.85 9.695-.954 1.679-1.802 3.247-2.387 4.476a16 16 0 0 0-.672 1.587c-.074.216-.13.418-.161.597-.028.162-.048.374.018.57l.474-.157.474-.159c.016.047-.002.038.02-.085a3 3 0 0 1 .121-.444c.13-.38.343-.88.629-1.479.57-1.196 1.403-2.74 2.353-4.411 1.9-3.341 4.245-7.159 5.825-9.655zm-9 16.5-.474.158c.086.26.229.49.442.659.215.17.466.252.723.274.49.043 1.056-.127 1.637-.385 1.179-.523 2.718-1.554 4.463-2.8l-.291-.407-.29-.406c-1.756 1.254-3.217 2.223-4.288 2.7-.544.242-.916.322-1.144.302a.34.34 0 0 1-.188-.061.4.4 0 0 1-.116-.193zm6.5-2.5.33.376v-.001l.004-.003.014-.013.057-.05.218-.19.807-.703a970 970 0 0 1 2.71-2.35c2.145-1.855 4.766-4.101 6.678-5.681L62 40.675l-.318-.385c-1.922 1.587-4.55 3.84-6.696 5.695a962 962 0 0 0-3.52 3.057l-.22.19q-.036.035-.056.05l-.014.013-.004.003-.001.001z"/><path stroke="#000" stroke-linecap="round" d="M70.5 46.176c-2.833 2.833-11.2 10.5-22 18.5-13.5 10-24.5 25-25 26-.4.8-2.167 2.333-3 3M71 56.176l-3.5-3M66 52.176l-3.5-2.5M61 47.676l-3.5-2M55.5 43.676l-3.5-2.5"/><path fill="#000" d="M101.389 39.213c-.239.08-.412.231-.659.35a.99.99 0 0 1-.8-.006c-.565-.313-.489-.506-.937-.876l-.009-.007c-.396-.351-.737-.778-.962-.885-.226-.106-.122-.272-.418-.456a2.5 2.5 0 0 1-.335-.244l-.029-.027a2.3 2.3 0 0 1-.254-.386c-.164-.273-.67-1.067-.889-1.347a1.05 1.05 0 0 1-.205-.412c-.046-.217-.041-.398-.072-.531a1 1 0 0 1-.024-.175q0-.03.019-.036c.014-.006.033.002.043.023.05.105.135.26.247.443q.059.094.092.16c.107.178.088.306.332.634.313.4.572.573.902 1.065.062.09.122.158.184.216l-.028-.026c.322.222.607.226 1.06.79.335.424.557.535.835.695.166.09.35.197.574.333.202.121.373.187.498.178a2 2 0 0 0 .767-.265 2.4 2.4 0 0 0 .387-.279c.242-.224.495-.554.499-.844.006-.186.01-.366-.006-.515-.012-.122-.054-.212-.096-.245-.111-.1-.295-.186-.494-.25-.364-.12-.748-.22-1.111-.342-.75-.25-1.862-.571-2.354-.775l-.258-.103a3 3 0 0 0-.849-.214 9 9 0 0 1-.993-.212c-.156-.02-.155-.09.04-.12.264-.03.465.033.605-.015.282-.09.407-.12.715.03.265.133.447.051.612.077q.035.005.069.018c.174.067.14.183 1.09.32.951.128 1.484.22 1.852.3.202.041.515.151.85.29.244.103.504.232.738.436q.096.087.164.185c.235.337.243.783.236 1.155-.033.764-.567 1.208-.763 1.438-.212.225-.334.278-.463.323-.107.038-.219.069-.402.133"/><path stroke="#000" stroke-linecap="round" d="M57.5 12.176c-.8-1.6 2.333-2.334 4-2.5 2 .5 2 3.5 0 4.5s-3 0-4-2Z"/><path fill="#000" d="M60.256 12.619c-.042-.131-.032.457-.074.377s-.074-.391-.112-.317c-.036.074-.102-.133-.105-.004v.02l.269-.098c.092-.023.146-.156.15-.329.015-.181-.098-.388-.134-.481-.067-.202-.105-.13-.16-.024-.06.115-.007.243.045.093.046-.149.03.12.047.186a.6.6 0 0 1 .005.138.3.3 0 0 1-.01.064.8.8 0 0 0-.071.174c-.075.2-.044-.028-.127.064-.085.09-.204.285-.284.097-.033-.085-.106-.033-.26-.076-.07-.03-.202-.067-.278-.355a.7.7 0 0 1 .083-.49.6.6 0 0 1 .254-.237c.064.02.24-.15.289-.104q.02.019.048.083c.13.315.075-.287.168-.376.093-.088.227.24.277.21.053-.03.123-.102.2-.024.075.078.165-.124.244.019l.02.034c.869 0 .869 1.45 0 1.45a1.3 1.3 0 0 1-.259-.428c-.04-.128-.044-.156-.114-.095-.04.035-.083-.017-.071-.177a.6.6 0 0 1 .075-.227c.04-.068.041-.015.083-.145.08-.261.1-.364.089-.204-.008.16.063-.194.065-.152.004.042-.02.255.06.098a.8.8 0 0 0 .071-.185c.948 0 .948 1.58 0 1.58q-.03.034-.05.056c-.032.04-.1-.145-.152-.077s-.157.009-.194.12c-.036.11-.046-.127-.087-.258"/><path stroke="#000" stroke-linecap="round" d="m100 46.176 1-1.5M102 43.676l.5-1M104 41.676l1-1.5M106 39.676l1-1.5M108 37.176l1-1M111 35.176l-2-1M107.5 33.176l-2-1.5M104.5 30.676l-2-1M101.5 28.676l-1.5-1M99 26.676l-2-1M96 24.676l-2-1.5M92.5 22.676l-1.5-1M89.5 21.176l-1.5-1M87 19.176l-1.5-1M84 17.676l-1.5-.5M81.5 16.676l-1-1M79 15.176l-1.5-1M76.5 13.676l-1-.5M74 12.176l-1.5-1M71 10.676l-1.5-1M68 8.675l-1-.5M66 7.675l-2-1.5M63 5.675l-1.5-.5M60.5 5.675l-1 1M58.5 7.675l-1 1.5M56.5 10.176l-1 1M55 12.176l-1.5 1M52.5 14.176l-1 1M51 16.176c1 .333 3.1.8 3.5 0M56.5 15.176c0 .166.2.8 1 2M60 19.176c1 .666 3.4 1.9 5 1.5M67 21.676c-.333 1.333-.2 4 3 4M72.5 27.176c1 .5 5.5 0 6 2M80.5 30.676c.333 1 1.3 3.2 2.5 4M85.5 36.676c1.333.666 4.4 1.8 6 1M94 39.676c-.333 1.333-.4 3.8 2 3M98.5 45.176c.167 1.5 1 3.9 3 1.5s1.833-1 1.5 0"/></svg>
